assets/images/email.svg

<svg xmlns="http://www.w3.org/2000/svg" width="24" height="24" viewBox="0 0 24 24" fill="#577EB5"><path d="M0 3v18h24v-18h-24zm6.623 7.929l-4.623 5.712v-9.458l4.623 3.746zm-4.141-5.929h19.035l-9.517 7.713-9.518-7.713zm5.694 7.188l3.824 3.099 3.83-3.104 5.612 6.817h-18.779l5.513-6.812zm9.208-1.264l4.616-3.741v9.348l-4.616-5.607z"/></svg>

<svg xmlns="http://www.w3.org/2000/svg" width="24" height="24" fill="#0084C2"><path d="M0 3v18h24V3H0zm6.623 7.929L2 16.641V7.183l4.623 3.746zM2.482 5h19.035L12 12.713 2.482 5zm5.694 7.188L12 15.287l3.83-3.104L21.442 19H2.663l5.513-6.812zm9.208-1.264L22 7.183v9.348l-4.616-5.607z"/></svg>
